X:1
T:In That City
T:In That City
T:Charles J. Butler
T:Charles J. Butler, 1894
T:Public Domain Courtesy of the Cyber Hymnal™
C:Charles J. Butler
Z:Public Domain
Z:Courtesy of the Cyber Hymnal™
%%score ( 1 2 ) 3
L:1/8
Q:1/4=107
M:4/4
K:Eb
V:1 treble 
V:2 treble 
V:3 bass 
V:1
 E3 [DF] ([EG] [GB]2) [GB] | [Ac]3 [GB] [EG] [GB]3 | E2 [EF]2 [DB]3 [EG] | [DF]2 [DF]2 E4 | %4
w: 1.~O’er death’s sea, * in|yon blest ci- ty,|There’s a home for|ev- ery- one;|
w: 2.~Here we’ve no * a-|bid- ing ci- ty,|Man- sions here will|soon de- cay;|
w: 3.~I have loved * ones|in that ci- ty,|Those who left me|years a- go;|
w: 4.~T’ward that pure * and|ho- ly ci- ty|Oft my long- ing|eyes I cast;|
 E3 [DF] ([EG] [GB]2) [GB] | [Ac]3 [GB] [EG] [GB]3 | [Ac]2 [GB]2 [EG]3 [EG] | [DF]2 [DG]2 E4 || %8
w: Pur- chased with * a|price most cost- ly,|’Twas the blood of|God’s dear Son.|
w: But that ci- * ty|God’s built firm- ly,|It can ne- ver|pass a- way.|
w: They with joy * are|wait- ing for me,|Where no fare- well|tears e’er flow.|
w: Je- sus whis- * pers|sweet- ly to me,|“Heav’n is yours when|earth is past.”|
"^Refrain" [GB]3 [GB] [Ac] [Ae]3 | [ce]4 [Ac] [GB]3 | [GB]3 [GB] [Ac] [Ae]3 | %11
w: |||
w: In that ci- ty—|bright ci- ty,|Soon with loved ones|
w: |||
w: |||
 ([Ac][GB]) [EG]2 [DF]4 | E3 [DF] [EG] [GB]3 | [Ac]3 [GB] [EG] [GB]3 | E2 [DF]2 [EG] [GB]2 [EG] | %15
w: ||||
w: I * shall be;|And with Je- sus|live for- ev- er,|In that ci- ty be-|
w: ||||
w: ||||
 [DF]2 [DG]2 E4 |] %16
w: |
w: yond death’s sea.|
w: |
w: |
V:2
 E3 x5 | x8 | E2 x6 | x4 E4 | E3 x5 | x8 | x8 | x4 E4 || x8 | x8 | x8 | x8 | E3 x5 | x8 | E2 x6 | %15
 x4 E4 |] %16
V:3
 [E,G,]3 [B,,B,] ([E,B,] [E,E]2) [E,E] | [E,E]3 [E,E] [E,B,] [E,E]3 | %2
 [E,G,]2 [C,=A,]2 [B,,B,]3 [B,,B,] | [B,,A,]2 [B,,A,]2 [E,G,]4 | %4
 [E,G,]3 [B,,B,] ([E,B,] [E,E]2) [E,E] | [E,E]3 [E,E] [E,B,] [E,E]3 | %6
 [E,E]2 [E,E]2 [E,B,]3 [G,,B,] | [B,,B,]2 [B,,A,]2 [E,G,]4 || [E,E]3 [E,E] [A,E] [A,C]3 | %9
 [A,E]4 [E,E] [E,E]3 | [E,E]3 [E,E] [A,E] [A,C]3 | [E,E]2 [E,B,]2 [B,,B,]4 | %12
 [E,G,]3 [B,,B,] [E,B,] [E,E]3 | [E,E]3 [E,E] [E,B,] [E,E]3 | %14
 [G,B,]2 [F,B,]2 [E,B,] [E,B,]2 [G,,B,] | [B,,B,]2 [B,,A,]2 [E,G,]4 |] %16

